images/press/logos/logo.svg

<svg height="1596" viewBox="0 0 4134 1596" width="4134" xmlns="http://www.w3.org/2000/svg"><g fill="#fff"><g transform="translate(1309 619)"><path d="m184.023538 173.073685c0 29.874175-11.150201 49.493658-32.560258 58.851498l30.779565 116.82005c1.33552 5.360249-1.33552 8.022992-6.246339 8.022992h-46.395411c-4.45869 0-6.684556-2.224746-7.581859-6.243194l-29.8892177-113.246551h-30.7795644v112.363604c0 4.463398-2.6710402 7.126141-7.1366855 7.126141h-46.39541124c-4.45868945 0-7.13668545-2.676648-7.13668545-7.126141v-342.43715739c0-4.4564454 2.677996-7.13309357 7.13668545-7.13309357h111.96805584c41.929766 0 64.237125 22.29613166 64.237125 64.20479446zm-78.510495 5.346344c11.595374 0 17.841713-6.243195 17.841713-17.832734v-83.8242776c0-11.589539-6.246339-17.8257816-17.841713-17.8257816h-44.1625891v119.4897462z"/><path d="m219.686098 64.2766275c0-41.9086628 22.300403-64.20479446 64.237125-64.20479446h49.963754c41.929766 0 64.237125 22.29613166 64.237125 64.20479446v228.2868035c0 41.90171-22.307359 64.197842-64.237125 64.197842h-49.963754c-41.936722 0-64.237125-22.296132-64.237125-64.197842zm103.043722 234.9679955c11.595375 0 17.841713-5.798246 17.841713-17.832734v-205.9837195c0-11.589539-6.246338-17.8327339-17.841713-17.8327339h-25.868746c-11.595375 0-17.841714 6.2431949-17.841714 17.8327339v205.9906715c0 12.027536 6.246339 17.825782 17.841714 17.825782z"/><path d="m621.587218 112.428485c0 4.463398-2.677996 7.133094-7.12973 7.133094h-44.607762c-4.910819 0-7.136685-2.669696-7.136685-7.133094v-35.6654676c0-11.589539-6.239383-17.8257816-17.834758-17.8257816h-23.197706c-12.040548 0-17.841713 6.2362426-17.841713 17.8257816v203.3279286c0 12.034488 6.239382 17.818829 17.841713 17.818829h23.197706c11.595375 0 17.834758-5.791293 17.834758-17.818829v-35.679373c0-4.463397 2.225866-7.133093 7.136685-7.133093h44.607762c4.472601 0 7.12973 2.669696 7.12973 7.133093v48.15881c0 41.901711-22.752533 64.197842-64.230169 64.197842h-49.963754c-41.929766 0-64.682299-22.296131-64.682299-64.197842v-228.2937555c0-41.9086628 22.752533-64.20479446 64.682299-64.20479446h49.963754c41.484592 0 64.230169 22.29613166 64.230169 64.20479446z"/><path d="m809.81208 356.768225c-5.362948 0-8.472206-2.224746-10.266811-6.681191l-56.196181-132.428038-16.513149 31.660924v98.528462c0 5.798246-3.116214 8.919843-8.917379 8.919843h-42.827069c-5.801165 0-8.924335-3.121597-8.924335-8.919843v-338.85670583c0-5.79129332 3.12317-8.91984313 8.924335-8.91984313h42.827069c5.794209 0 8.917379 3.12159748 8.917379 8.91984313v138.21933083l68.695814-140.4510297c2.232823-4.4564454 5.362948-6.68814426 10.266811-6.68814426h46.833628c6.691512 0 9.369508 4.46339773 6.239383 10.69964036l-75.825544 155.6071156 80.729407 180.134945c3.123169 5.798246.445173 10.254691-6.684556 10.254691z"/><path d="m1074.32853 51.7971899c0 4.4564454-1.78765 7.5780429-7.13669 7.5780429h-111.522882v89.1706222h85.202012c4.4726 0 7.13668 2.676648 7.13668 7.578043v44.140361c0 4.908347-2.67799 7.584995-7.13668 7.584995h-85.202012v90.060521h111.522882c5.36295 0 7.13669 2.231699 7.13669 7.133094v44.592263c0 4.456445-1.78765 7.119189-7.13669 7.119189h-164.157676c-4.020472 0-6.698468-2.676648-6.698468-7.119189v-342.43020539c0-4.4564454 2.677996-7.13309357 6.698468-7.13309357h164.157676c5.36295 0 7.13669 2.67664817 7.13669 7.13309357z"/><path d="m1281.2924.07183304c4.90387 0 7.13669 2.67664817 7.13669 7.13309357v44.59226329c0 4.4564454-2.23282 7.1330936-7.13669 7.1330936h-51.74444v290.7048485c0 4.901395-2.22587 7.119189-7.12973 7.119189h-46.39541c-4.4726 0-7.13669-2.217794-7.13669-7.119189v-290.7048485h-51.73749c-4.4726 0-7.13669-2.6766482-7.13669-7.1330936v-44.59226329c0-4.4564454 2.678-7.13309357 7.13669-7.13309357z"/><path d="m1284 306.912891c0-5.798246 3.12317-8.912891 8.92433-8.912891h40.59425c5.80117 0 8.91738 3.114645 8.91738 8.912891v41.011812c0 5.805198-3.11621 8.919843-8.91738 8.919843h-40.59425c-5.80116 0-8.92433-3.114645-8.92433-8.919843z"/><path d="m1565.85556 112.428485c0 4.463398-2.68495 7.133094-7.13668 7.133094h-44.60776c-4.90387 0-7.12973-2.669696-7.12973-7.133094v-35.6654676c0-11.589539-6.23939-17.8257816-17.83476-17.8257816h-23.19771c-12.0475 0-17.84171 6.2362426-17.84171 17.8257816v203.3279286c0 12.034488 6.23938 17.818829 17.84171 17.818829h23.19771c11.59537 0 17.83476-5.791293 17.83476-17.818829v-35.679373c0-4.463397 2.22586-7.133093 7.12973-7.133093h44.60776c4.4726 0 7.13668 2.669696 7.13668 7.133093v48.15881c0 41.901711-22.75253 64.197842-64.23712 64.197842h-49.96375c-41.92977 0-64.6823-22.296131-64.6823-64.197842v-228.2937555c0-41.9086628 22.75253-64.20479446 64.6823-64.20479446h49.96375c41.49155 0 64.23712 22.29613166 64.23712 64.20479446z"/><path d="m1728.21168 7.20492661c0-4.4564454 2.67104-7.13309357 7.12973-7.13309357h45.94328c5.35599 0 7.5749 2.67664817 7.5749 7.13309357v342.43020539c0 4.456445-2.22586 7.119189-7.5749 7.119189h-45.94328c-4.4726 0-7.12973-2.676648-7.12973-7.119189v-141.785878h-57.10044v141.79283c0 4.463398-2.678 7.126141-7.13668 7.126141h-45.93633c-5.36295 0-7.58882-2.676648-7.58882-7.126141v-342.43715739c0-4.4564454 2.22587-7.13309357 7.58882-7.13309357h45.93633c4.4726 0 7.13668 2.67664817 7.13668 7.13309357v141.78587739h57.10044z"/><path d="m1992.28295 356.768225c-4.01351 0-6.23938-2.224746-7.13668-6.243194l-12.48572-65.087741h-79.4078l-12.03359 65.087741c-.89731 4.018448-3.12317 6.243194-7.13669 6.243194h-47.72398c-4.90386 0-7.13668-2.676648-5.80812-7.578042l74.05181-342.87515501c.8973-4.45644539 3.56834-6.24319495 7.58186-6.24319495h62.01126c4.01351 0 6.69151 1.78674956 7.58186 6.24319495l74.0518 342.87515501c.8973 4.901394-.89034 7.578042-6.23938 7.578042zm-59.33326-278.6703597-28.54674 155.6071157h57.10044z"/><path d="m2212.62986.07183304c4.90386 0 7.13668 2.67664817 7.13668 7.13309357v44.59226329c0 4.4564454-2.23282 7.1330936-7.13668 7.1330936h-51.7375v290.7048485c0 4.901395-2.23282 7.119189-7.13668 7.119189h-46.39541c-4.45869 0-7.12973-2.217794-7.12973-7.119189v-290.7048485h-51.73749c-4.46565 0-7.12973-2.6766482-7.12973-7.1330936v-44.59226329c0-4.4564454 2.67799-7.13309357 7.12973-7.13309357z"/></g><g transform="translate(588 532)"><path d="m530.351362 206.490151.007849.01225c-.001309-.002042-.002617-.004083-.003926-.006124-.001307-.002042-.002615-.004084-.003923-.006126zm-348.144201-184.0080786c18.642235 10.3538927 36.263887 23.4538451 51.312947 38.0142018 24.258457-4.3936953 49.271783-6.6092661 74.647445-6.6092661 75.963936 0 147.984439 19.927655 202.78186 56.1007489 28.37702 18.741856 50.932493 40.978698 67.03233 66.098902 17.929639 27.991084 27.018257 58.091642 27.018257 90.34536 0 31.386212-9.088618 61.499252-27.018257 89.484095-16.099837 25.132686-38.65531 47.363287-67.03233 66.105143-54.797421 36.173094-126.811885 56.088267-202.78186 56.088267-25.375662 0-50.382949-2.215571-74.647445-6.603025-15.055099 14.554115-32.670712 27.660309-51.312947 38.014202-99.6064204 49.884668-182.207161 1.173316-182.207161 1.173316s76.7973109-65.200192 64.308765-122.355677c-34.3616183-35.218214-52.9796972-77.694762-52.9796972-122.761345 0-44.2178 18.6241179-86.694348 52.9796972-121.918803 12.486478-57.1397813-64.28333436-122.3278438-64.30875868-122.3494306.02456384-.0144944 82.61554838-48.7101784 182.20715468 1.173311zm-59.576435 342.2797346c9.615113 30.668952 3.982157 65.235437-16.89887 103.699456-.998992 1.8402-1.929565 3.701428-2.940158 5.538737 17.914592-1.499095 36.021786-6.412106 54.35854-15.417117 13.833949-7.787485 27.105766-17.669977 38.429072-28.590432l20.839418-20.098011c28.504293 7.678921 59.777393 11.918831 92.581272 11.918831 133.100625 0 241-69.801778 241-155.906635 0-86.104858-107.899375-155.906636-241-155.906636s-241 69.801778-241 155.906636c0 37.523834 20.4917034 71.951471 54.630726 98.855171z"/><path d="m193.430636 303c-19.5678 0-35.430636-16.117749-35.430636-36s15.862836-36 35.430636-36 35.430636 16.117749 35.430636 36-15.862836 36-35.430636 36zm114.069364 0c-19.5678 0-35.430636-16.117749-35.430636-36s15.862836-36 35.430636-36 35.430636 16.117749 35.430636 36-15.862836 36-35.430636 36zm114.069364 0c-19.5678 0-35.430636-16.117749-35.430636-36s15.862836-36 35.430636-36 35.430636 16.117749 35.430636 36-15.862836 36-35.430636 36z"/></g></g></svg>

<?xml version="1.0" encoding="UTF-8"?>
<svg width="4134px" height="1596px" viewBox="0 0 4134 1596" version="1.1" xmlns="http://www.w3.org/2000/svg" xmlns:xlink="http://www.w3.org/1999/xlink">
    <!-- Generator: Sketch 51 (57462) - http://www.bohemiancoding.com/sketch -->
    <title>Logo - PB</title>
    <desc>Created with Sketch.</desc>
    <defs></defs>
    <g id="Logo---PB" stroke="none" stroke-width="1" fill="none" fill-rule="evenodd">
        <g id="Group-2" transform="translate(588.000000, 532.000000)" fill="#FFFFFF" fill-rule="nonzero">
            <g id="logo-type" transform="translate(721.000000, 87.000000)">
                <g id="Group">
                    <path d="M184.023538,173.073685 C184.023538,202.94786 172.873337,222.567343 151.46328,231.925183 L182.242845,348.745233 C183.578365,354.105482 180.907325,356.768225 175.996506,356.768225 L129.601095,356.768225 C125.142405,356.768225 122.916539,354.543479 122.019236,350.525031 L92.1300183,237.27848 L61.3504539,237.27848 L61.3504539,349.642084 C61.3504539,354.105482 58.6794137,356.768225 54.2137684,356.768225 L7.81835716,356.768225 C3.35966771,356.768225 0.68167171,354.091577 0.68167171,349.642084 L0.68167171,7.20492661 C0.68167171,2.74848121 3.35966771,0.0718330391 7.81835716,0.0718330391 L119.786413,0.0718330391 C161.716179,0.0718330391 184.023538,22.3679647 184.023538,64.2766275 L184.023538,173.073685 Z M105.513043,178.420029 C117.108417,178.420029 123.354756,172.176834 123.354756,160.587295 L123.354756,76.7630174 C123.354756,65.1734784 117.108417,58.9372358 105.513043,58.9372358 L61.3504539,58.9372358 L61.3504539,178.426982 L105.513043,178.420029 Z" id="Shape"></path>
                    <path d="M219.686098,64.2766275 C219.686098,22.3679647 241.986501,0.0718330391 283.923223,0.0718330391 L333.886977,0.0718330391 C375.816743,0.0718330391 398.124102,22.3679647 398.124102,64.2766275 L398.124102,292.563431 C398.124102,334.465141 375.816743,356.761273 333.886977,356.761273 L283.923223,356.761273 C241.986501,356.761273 219.686098,334.465141 219.686098,292.563431 L219.686098,64.2766275 Z M322.72982,299.244623 C334.325195,299.244623 340.571533,293.446377 340.571533,281.411889 L340.571533,75.4281695 C340.571533,63.8386305 334.325195,57.5954356 322.72982,57.5954356 L296.861074,57.5954356 C285.265699,57.5954356 279.01936,63.8386305 279.01936,75.4281695 L279.01936,281.418841 C279.01936,293.446377 285.265699,299.244623 296.861074,299.244623 L322.72982,299.244623 Z" id="Shape"></path>
                    <path d="M621.587218,112.428485 C621.587218,116.891883 618.909222,119.561579 614.457488,119.561579 L569.849726,119.561579 C564.938907,119.561579 562.713041,116.891883 562.713041,112.428485 L562.713041,76.7630174 C562.713041,65.1734784 556.473658,58.9372358 544.878283,58.9372358 L521.680577,58.9372358 C509.640029,58.9372358 503.838864,65.1734784 503.838864,76.7630174 L503.838864,280.090946 C503.838864,292.125434 510.078246,297.909775 521.680577,297.909775 L544.878283,297.909775 C556.473658,297.909775 562.713041,292.118482 562.713041,280.090946 L562.713041,244.411573 C562.713041,239.948176 564.938907,237.27848 569.849726,237.27848 L614.457488,237.27848 C618.930089,237.27848 621.587218,239.948176 621.587218,244.411573 L621.587218,292.570383 C621.587218,334.472094 598.834685,356.768225 557.357049,356.768225 L507.393295,356.768225 C465.463529,356.768225 442.710996,334.472094 442.710996,292.570383 L442.710996,64.2766275 C442.710996,22.3679647 465.463529,0.0718330391 507.393295,0.0718330391 L557.357049,0.0718330391 C598.841641,0.0718330391 621.587218,22.3679647 621.587218,64.2766275 L621.587218,112.428485 Z" id="Shape"></path>
                    <path d="M809.81208,356.768225 C804.449132,356.768225 801.339874,354.543479 799.545269,350.087034 L743.349088,217.658996 L726.835939,249.31992 L726.835939,347.848382 C726.835939,353.646628 723.719725,356.768225 717.91856,356.768225 L675.091491,356.768225 C669.290326,356.768225 666.167156,353.646628 666.167156,347.848382 L666.167156,8.99167617 C666.167156,3.20038285 669.290326,0.0718330391 675.091491,0.0718330391 L717.91856,0.0718330391 C723.712769,0.0718330391 726.835939,3.19343052 726.835939,8.99167617 L726.835939,147.211007 L795.531753,6.7599773 C797.764576,2.3035319 800.894701,0.0718330391 805.798564,0.0718330391 L852.632192,0.0718330391 C859.323704,0.0718330391 862.0017,4.53523077 858.871575,10.7714734 L783.046031,166.378589 L863.775438,346.513534 C866.898607,352.31178 864.220611,356.768225 857.090882,356.768225 L809.81208,356.768225 Z" id="Shape"></path>
                    <path d="M1074.32853,51.7971899 C1074.32853,56.2536353 1072.54088,59.3752328 1067.19184,59.3752328 L955.668958,59.3752328 L955.668958,148.545855 L1040.87097,148.545855 C1045.34357,148.545855 1048.00765,151.222503 1048.00765,156.123898 L1048.00765,200.264259 C1048.00765,205.172606 1045.32966,207.849254 1040.87097,207.849254 L955.668958,207.849254 L955.668958,297.909775 L1067.19184,297.909775 C1072.55479,297.909775 1074.32853,300.141474 1074.32853,305.042869 L1074.32853,349.635132 C1074.32853,354.091577 1072.54088,356.754321 1067.19184,356.754321 L903.034164,356.754321 C899.013692,356.754321 896.335696,354.077673 896.335696,349.635132 L896.335696,7.20492661 C896.335696,2.74848121 899.013692,0.0718330391 903.034164,0.0718330391 L1067.19184,0.0718330391 C1072.55479,0.0718330391 1074.32853,2.74848121 1074.32853,7.20492661 L1074.32853,51.7971899 Z" id="Shape"></path>
                    <path d="M1281.2924,0.0718330391 C1286.19627,0.0718330391 1288.42909,2.74848121 1288.42909,7.20492661 L1288.42909,51.7971899 C1288.42909,56.2536353 1286.19627,58.9302835 1281.2924,58.9302835 L1229.54796,58.9302835 L1229.54796,349.635132 C1229.54796,354.536527 1227.32209,356.754321 1222.41823,356.754321 L1176.02282,356.754321 C1171.55022,356.754321 1168.88613,354.536527 1168.88613,349.635132 L1168.88613,58.9302835 L1117.14864,58.9302835 C1112.67604,58.9302835 1110.01195,56.2536353 1110.01195,51.7971899 L1110.01195,7.20492661 C1110.01195,2.74848121 1112.68995,0.0718330391 1117.14864,0.0718330391 L1281.2924,0.0718330391 Z" id="Shape"></path>
                    <path d="M1284,306.912891 C1284,301.114645 1287.12317,298 1292.92433,298 L1333.51858,298 C1339.31975,298 1342.43596,301.114645 1342.43596,306.912891 L1342.43596,347.924703 C1342.43596,353.729901 1339.31975,356.844546 1333.51858,356.844546 L1292.92433,356.844546 C1287.12317,356.844546 1284,353.729901 1284,347.924703 L1284,306.912891 Z" id="Shape"></path>
                    <path d="M1565.85556,112.428485 C1565.85556,116.891883 1563.17061,119.561579 1558.71888,119.561579 L1514.11112,119.561579 C1509.20725,119.561579 1506.98139,116.891883 1506.98139,112.428485 L1506.98139,76.7630174 C1506.98139,65.1734784 1500.742,58.9372358 1489.14663,58.9372358 L1465.94892,58.9372358 C1453.90142,58.9372358 1448.10721,65.1734784 1448.10721,76.7630174 L1448.10721,280.090946 C1448.10721,292.125434 1454.34659,297.909775 1465.94892,297.909775 L1489.14663,297.909775 C1500.742,297.909775 1506.98139,292.118482 1506.98139,280.090946 L1506.98139,244.411573 C1506.98139,239.948176 1509.20725,237.27848 1514.11112,237.27848 L1558.71888,237.27848 C1563.19148,237.27848 1565.85556,239.948176 1565.85556,244.411573 L1565.85556,292.570383 C1565.85556,334.472094 1543.10303,356.768225 1501.61844,356.768225 L1451.65469,356.768225 C1409.72492,356.768225 1386.97239,334.472094 1386.97239,292.570383 L1386.97239,64.2766275 C1386.97239,22.3679647 1409.72492,0.0718330391 1451.65469,0.0718330391 L1501.61844,0.0718330391 C1543.10999,0.0718330391 1565.85556,22.3679647 1565.85556,64.2766275 L1565.85556,112.428485 Z" id="Shape"></path>
                    <path d="M1728.21168,7.20492661 C1728.21168,2.74848121 1730.88272,0.0718330391 1735.34141,0.0718330391 L1781.28469,0.0718330391 C1786.64068,0.0718330391 1788.85959,2.74848121 1788.85959,7.20492661 L1788.85959,349.635132 C1788.85959,354.091577 1786.63373,356.754321 1781.28469,356.754321 L1735.34141,356.754321 C1730.86881,356.754321 1728.21168,354.077673 1728.21168,349.635132 L1728.21168,207.849254 L1671.11124,207.849254 L1671.11124,349.642084 C1671.11124,354.105482 1668.43324,356.768225 1663.97456,356.768225 L1618.03823,356.768225 C1612.67528,356.768225 1610.44941,354.091577 1610.44941,349.642084 L1610.44941,7.20492661 C1610.44941,2.74848121 1612.67528,0.0718330391 1618.03823,0.0718330391 L1663.97456,0.0718330391 C1668.44716,0.0718330391 1671.11124,2.74848121 1671.11124,7.20492661 L1671.11124,148.990804 L1728.21168,148.990804 L1728.21168,7.20492661 Z" id="Shape"></path>
                    <path d="M1992.28295,356.768225 C1988.26944,356.768225 1986.04357,354.543479 1985.14627,350.525031 L1972.66055,285.43729 L1893.25275,285.43729 L1881.21916,350.525031 C1880.32185,354.543479 1878.09599,356.768225 1874.08247,356.768225 L1826.35849,356.768225 C1821.45463,356.768225 1819.22181,354.091577 1820.55037,349.190183 L1894.60218,6.31502799 C1895.49948,1.8585826 1898.17052,0.0718330391 1902.18404,0.0718330391 L1964.1953,0.0718330391 C1968.20881,0.0718330391 1970.88681,1.8585826 1971.77716,6.31502799 L2045.82896,349.190183 C2046.72626,354.091577 2044.93862,356.768225 2039.58958,356.768225 L1992.28295,356.768225 Z M1932.94969,78.0978653 L1904.40295,233.704981 L1961.50339,233.704981 L1932.94969,78.0978653 Z" id="Shape"></path>
                    <path d="M2212.62986,0.0718330391 C2217.53372,0.0718330391 2219.76654,2.74848121 2219.76654,7.20492661 L2219.76654,51.7971899 C2219.76654,56.2536353 2217.53372,58.9302835 2212.62986,58.9302835 L2160.89236,58.9302835 L2160.89236,349.635132 C2160.89236,354.536527 2158.65954,356.754321 2153.75568,356.754321 L2107.36027,356.754321 C2102.90158,356.754321 2100.23054,354.536527 2100.23054,349.635132 L2100.23054,58.9302835 L2048.49305,58.9302835 C2044.0274,58.9302835 2041.36332,56.2536353 2041.36332,51.7971899 L2041.36332,7.20492661 C2041.36332,2.74848121 2044.04131,0.0718330391 2048.49305,0.0718330391 L2212.62986,0.0718330391 Z" id="Shape"></path>
                </g>
            </g>
            <g id="icon">
                <path d="M530.351362,206.490151 L530.359211,206.502401 C530.357902,206.500359 530.356594,206.498318 530.355285,206.496277 C530.353978,206.494235 530.35267,206.492193 530.351362,206.490151 Z M182.207161,22.4820724 C200.849396,32.8359651 218.471048,45.9359175 233.520108,60.4962742 C257.778565,56.1025789 282.791891,53.8870081 308.167553,53.8870081 C384.131489,53.8870081 456.151992,73.8146631 510.949413,109.987757 C539.326433,128.729613 561.881906,150.966455 577.981743,176.086659 C595.911382,204.077743 605,234.178301 605,266.432019 C605,297.818231 595.911382,327.931271 577.981743,355.916114 C561.881906,381.0488 539.326433,403.279401 510.949413,422.021257 C456.151992,458.194351 384.137528,478.109524 308.167553,478.109524 C282.791891,478.109524 257.784604,475.893953 233.520108,471.506499 C218.465009,486.060614 200.849396,499.166808 182.207161,509.520701 C82.6007406,559.405369 0,510.694017 0,510.694017 C0,510.694017 76.7973109,445.493825 64.308765,388.33834 C29.9471467,353.120126 11.3290678,310.643578 11.3290678,265.576995 C11.3290678,221.359195 29.9531857,178.882647 64.308765,143.658192 C76.795243,86.5184107 0.0254306434,21.3303482 6.31628501e-06,21.3087614 C0.024570164,21.294267 82.6155547,-27.401417 182.207161,22.4820724 Z M122.630726,364.761807 C132.245839,395.430759 126.612883,429.997244 105.731856,468.461263 C104.732864,470.301463 103.802291,472.162691 102.791698,474 C120.70629,472.500905 138.813484,467.587894 157.150238,458.582883 C170.984187,450.795398 184.256004,440.912906 195.57931,429.992451 L216.418728,409.89444 C244.923021,417.573361 276.196121,421.813271 309,421.813271 C442.100625,421.813271 550,352.011493 550,265.906636 C550,179.801778 442.100625,110 309,110 C175.899375,110 68,179.801778 68,265.906636 C68,303.43047 88.4917034,337.858107 122.630726,364.761807 Z" id="Combined-Shape"></path>
                <path d="M193.430636,303 C173.862836,303 158,286.882251 158,267 C158,247.117749 173.862836,231 193.430636,231 C212.998436,231 228.861272,247.117749 228.861272,267 C228.861272,286.882251 212.998436,303 193.430636,303 Z M307.5,303 C287.9322,303 272.069364,286.882251 272.069364,267 C272.069364,247.117749 287.9322,231 307.5,231 C327.0678,231 342.930636,247.117749 342.930636,267 C342.930636,286.882251 327.0678,303 307.5,303 Z M421.569364,303 C402.001564,303 386.138728,286.882251 386.138728,267 C386.138728,247.117749 402.001564,231 421.569364,231 C441.137164,231 457,247.117749 457,267 C457,286.882251 441.137164,303 421.569364,303 Z" id="circles"></path>
            </g>
        </g>
    </g>
</svg>
